X:317
T: EIN LIEDCHEN ZU SINGEN
N: E1467
O: Europa, Mitteleuropa, Deutschland, Hessen, Taunus, Arnoldshain
R: Staende -, Jaeger - Lied, Wilderer
M: 3/8
L: 1/16
K: G
D2 | D2E2F2 | GBB2
d2 | c2A2FF | G2z2
D2 | D2E2F2 | GBB2
d2 | c2A2FF | G2z2
GG | G2e2d2 | d2c2c2 |
AAd2c2 | c2B2B2 |
G2F2E2 | D3cc2 |
D2E2F2 | G4

@@@ Tune index: 5001
